svg/furkot/icomoon/plus.svg

<svg viewBox="0 0 512 512" xmlns="http://www.w3.org/2000/svg"><path d="m496 192h-176v-176c0-8.84-7.16-16-16-16h-96c-8.84 0-16 7.16-16 16v176h-176c-8.84 0-16 7.16-16 16v96c0 8.84 7.16 16 16 16h176v176c0 8.84 7.16 16 16 16h96c8.84 0 16-7.16 16-16v-176h176c8.84 0 16-7.16 16-16v-96c0-8.84-7.16-16-16-16z"/></svg>

<svg xmlns="http://www.w3.org/2000/svg" viewBox="0 0 512 512"><path d="M496 192H320V16C320 7.16 312.84 0 304 0H208C199.16 0 192 7.16 192 16V192H16C7.16 192 0 199.16 0 208V304C0 312.84 7.16 320 16 320H192V496C192 504.84 199.16 512 208 512H304C312.84 512 320 504.84 320 496V320H496C504.84 320 512 312.84 512 304V208C512 199.16 504.84 192 496 192Z"/></svg>
